symbols/web/electric_scooter/materialsymbolssharp/electric_scooter_wght100gradN25fill1_40px.svg

<svg xmlns="http://www.w3.org/2000/svg" height="40" width="40"><path d="M8.5 28.875q-1.583 0-2.667-1.104-1.083-1.104-1.083-2.688 0-1.625 1.083-2.729Q6.917 21.25 8.5 21.25q1.25 0 2.438.792 1.187.791 1.479 2.5h10.75q.208-3.084 2.354-5.25 2.146-2.167 5.062-2.375L27.708 3.75H21.5v-.958h7l3.208 14.958H31.5q-3.083 0-5.229 2.146t-2.146 5.271v.375H12.417q-.292 1.708-1.479 2.52-1.188.813-2.438.813Zm22.958.083q-1.583 0-2.687-1.104-1.104-1.104-1.104-2.687 0-1.625 1.104-2.729 1.104-1.105 2.687-1.105 1.584 0 2.709 1.105 1.125 1.104 1.125 2.729 0 1.583-1.104 2.687-1.105 1.104-2.73 1.104Zm-9.833 8.584L13.667 33.5h5.208v-2.75l7.958 4.083h-5.208Z"/></svg>

<svg xmlns="http://www.w3.org/2000/svg" height="40" width="40"><path d="M8.5 28.875Q6.917 28.875 5.833 27.771Q4.75 26.667 4.75 25.083Q4.75 23.458 5.833 22.354Q6.917 21.25 8.5 21.25Q9.75 21.25 10.938 22.042Q12.125 22.833 12.417 24.542H23.167Q23.375 21.458 25.521 19.292Q27.667 17.125 30.583 16.917L27.708 3.75H21.5V2.792H28.5L31.708 17.75H31.5Q28.417 17.75 26.271 19.896Q24.125 22.042 24.125 25.167V25.542H12.417Q12.125 27.25 10.938 28.062Q9.75 28.875 8.5 28.875ZM31.458 28.958Q29.875 28.958 28.771 27.854Q27.667 26.75 27.667 25.167Q27.667 23.542 28.771 22.438Q29.875 21.333 31.458 21.333Q33.042 21.333 34.167 22.438Q35.292 23.542 35.292 25.167Q35.292 26.75 34.188 27.854Q33.083 28.958 31.458 28.958ZM21.625 37.542 13.667 33.5H18.875V30.75L26.833 34.833H21.625Z"/></svg>
